X:366
L:1/16
M:2/4
K:C
 !slide![ee]4 !slide![ee]2>d2 | edcd cAGF | ECDC A,B,CD | EGAc Ac!slide![ee]2 | 
 !slide![ee]4 [ee]4 | eged cAed | cAGG ABcd | ecdc A2<c2 :: eg2a g2eg | a_bag edcd | eged cAGA |1 
 cB[ee]2 [ee]4 :|2 A2<[ce]2 [ce]4 |: eg | a_bag edeg | a_bag e4 | a_bag eged | cdcA [Gce]2 :|

